X: 13145
T: First Month Of Spring, The
R: reel
M: 4/4
K: Cmajor
G2 eG GGeG|cded cAfA|Geee GAcd|e2 ed cAfA|
G2 eG GGeG|cded cAfA|Geee GAcd|e2 ed c2ce|
geae geeg|a2 a2 geee|a2 ge eddc|defa geee|
geae geeg|a2 ag egag|ageg fdec|dfed cAfA|

